packages/foundations/assets/icons/functional/images/food/knife_and_fork_14.svg

<svg width="14" height="14" viewBox="0 0 14 14" fill="none" xmlns="http://www.w3.org/2000/svg">
<g clip-path="url(#clip0_2208_3703)">
<path fill-rule="evenodd" clip-rule="evenodd" d="M2.80002 4.89999C2.80002 5.68749 3.43436 6.29999 4.20002 6.29999C4.92186 6.29999 5.60002 5.68749 5.60002 4.89999V2.09999C5.60002 1.70624 5.92818 1.39999 6.30002 1.39999C6.69377 1.39999 7.00002 1.72815 7.00002 2.09999V4.92183C7.00002 6.23433 6.10318 7.30624 4.90002 7.61249V11.9C4.90002 12.2937 4.57186 12.6 4.20002 12.6C3.80627 12.6 3.50002 12.2937 3.50002 11.9V7.61249C2.29686 7.30624 1.40002 6.23433 1.40002 4.92183V2.09999C1.40002 1.70624 1.70627 1.39999 2.10002 1.39999C2.49377 1.39999 2.80002 1.70624 2.80002 2.09999V4.89999ZM4.20002 1.39999C4.57186 1.39999 4.90002 1.70624 4.90002 2.09999V4.54999C4.90002 4.93659 4.58662 5.24999 4.20002 5.24999C3.81342 5.24999 3.50002 4.93659 3.50002 4.54999V2.09999C3.50002 1.70624 3.80627 1.39999 4.20002 1.39999ZM11.9 1.39999C12.2938 1.39999 12.6 1.70624 12.6 2.09999V11.9C12.6 12.2937 12.2938 12.6 11.9 12.6C11.5063 12.6 11.2 12.2937 11.2 11.9V9.79999H8.40002V4.94374C8.40002 3.06249 9.93127 1.39999 11.8125 1.39999H11.9ZM11.2 2.79999C10.3688 3.06249 9.80002 4.02499 9.80002 4.89999V8.39999H11.2V2.79999Z" fill="#1A1C1F"/>
</g>
<defs>
<clipPath id="clip0_2208_3703">
<rect width="14" height="14" fill="white"/>
</clipPath>
</defs>
</svg>

<svg xmlns="http://www.w3.org/2000/svg" width="14" height="14" fill="none"><g clip-path="url(#a)"><path fill="#1A1C1F" fill-rule="evenodd" d="M2.8 4.9c0 .787.634 1.4 1.4 1.4.722 0 1.4-.613 1.4-1.4V2.1c0-.394.328-.7.7-.7.394 0 .7.328.7.7v2.822a2.77 2.77 0 0 1-2.1 2.69V11.9c0 .394-.328.7-.7.7a.69.69 0 0 1-.7-.7V7.612a2.77 2.77 0 0 1-2.1-2.69V2.1c0-.394.306-.7.7-.7s.7.306.7.7zm1.4-3.5c.372 0 .7.306.7.7v2.45a.7.7 0 1 1-1.4 0V2.1c0-.394.306-.7.7-.7m7.7 0c.394 0 .7.306.7.7v9.8c0 .394-.306.7-.7.7a.69.69 0 0 1-.7-.7V9.8H8.4V4.944C8.4 3.062 9.931 1.4 11.812 1.4zm-.7 1.4c-.831.262-1.4 1.225-1.4 2.1v3.5h1.4z" clip-rule="evenodd"/></g><defs><clipPath id="a"><path fill="#fff" d="M0 0h14v14H0z"/></clipPath></defs></svg>
